Simply-Orange-Circles/scalable/apps/calibre-viewer.svg

<svg xmlns="http://www.w3.org/2000/svg" width="48" height="48" viewBox="0 0 12.7 12.7"><path d="M6.34.07a6.29 6.29 0 0 0-6.29 6.3 6.29 6.29 0 0 0 6.3 6.28 6.29 6.29 0 0 0 6.28-6.29A6.29 6.29 0 0 0 6.34.07zM6.32 1l.01.01a5.4 5.4 0 0 1 5.4 5.4 5.4 5.4 0 0 1-5.4 5.41 5.4 5.4 0 0 1-5.41-5.4A5.4 5.4 0 0 1 6.32 1zM3.53 2.43a.4.4 0 0 0-.4.4v7.21c0 .22.19.4.4.4h5.05l-.56-.56H4.59V2.99h2.59v2.74l.5-.3.5.3V3h.46c.18 0 .33.16.33.35v5.71l.59.6V2.82a.4.4 0 0 0-.4-.4H3.53zM7.05 6.3a1.67 1.67 0 0 0-1.67 1.67 1.67 1.67 0 0 0 1.67 1.66c.35 0 .67-.1.94-.3l1.12 1.12a.3.3 0 1 0 .43-.42L8.42 8.9c.18-.27.3-.6.3-.94A1.67 1.67 0 0 0 7.04 6.3zm0 .6A1.06 1.06 0 0 1 8.1 7.98a1.06 1.06 0 0 1-1.06 1.06 1.06 1.06 0 0 1-1.07-1.06c0-.6.48-1.06 1.07-1.06z" fill="#ff7f2a"/></svg>

<?xml version="1.0" encoding="UTF-8" standalone="no"?>
<svg
   xmlns:dc="http://purl.org/dc/elements/1.1/"
   xmlns:cc="http://creativecommons.org/ns#"
   xmlns:rdf="http://www.w3.org/1999/02/22-rdf-syntax-ns#"
   xmlns:svg="http://www.w3.org/2000/svg"
   xmlns="http://www.w3.org/2000/svg"
   xmlns:sodipodi="http://sodipodi.sourceforge.net/DTD/sodipodi-0.dtd"
   xmlns:inkscape="http://www.inkscape.org/namespaces/inkscape"
   width="48"
   height="48"
   viewBox="0 0 12.7 12.7"
   version="1.1"
   id="svg4"
   sodipodi:docname="calibre-viewer.svg"
   inkscape:version="0.92.4 (5da689c313, 2019-01-14)">
  <metadata
     id="metadata10">
    <rdf:RDF>
      <cc:Work
         rdf:about="">
        <dc:format>image/svg+xml</dc:format>
        <dc:type
           rdf:resource="http://purl.org/dc/dcmitype/StillImage" />
        <dc:title></dc:title>
      </cc:Work>
    </rdf:RDF>
  </metadata>
  <defs
     id="defs8" />
  <sodipodi:namedview
     pagecolor="#ffffff"
     bordercolor="#666666"
     borderopacity="1"
     objecttolerance="10"
     gridtolerance="10"
     guidetolerance="10"
     inkscape:pageopacity="0"
     inkscape:pageshadow="2"
     inkscape:window-width="1087"
     inkscape:window-height="480"
     id="namedview6"
     showgrid="false"
     inkscape:zoom="4.9166667"
     inkscape:cx="2.1355932"
     inkscape:cy="24"
     inkscape:window-x="0"
     inkscape:window-y="25"
     inkscape:window-maximized="0"
     inkscape:current-layer="svg4" />
  <path
     d="M 6.34,0.07 A 6.29,6.29 0 0 0 0.05,6.37 6.29,6.29 0 0 0 6.35,12.65 6.29,6.29 0 0 0 12.63,6.36 6.29,6.29 0 0 0 6.34,0.07 Z M 6.32,1 6.33,1.01 a 5.4,5.4 0 0 1 5.4,5.4 5.4,5.4 0 0 1 -5.4,5.41 A 5.4,5.4 0 0 1 0.92,6.42 5.4,5.4 0 0 1 6.32,1 Z M 3.53,2.43 a 0.4,0.4 0 0 0 -0.4,0.4 v 7.21 c 0,0.22 0.19,0.4 0.4,0.4 H 8.58 L 8.02,9.88 H 4.59 V 2.99 h 2.59 v 2.74 l 0.5,-0.3 0.5,0.3 V 3 h 0.46 c 0.18,0 0.33,0.16 0.33,0.35 v 5.71 l 0.59,0.6 V 2.82 A 0.4,0.4 0 0 0 9.16,2.42 H 3.53 Z M 7.05,6.3 A 1.67,1.67 0 0 0 5.38,7.97 1.67,1.67 0 0 0 7.05,9.63 c 0.35,0 0.67,-0.1 0.94,-0.3 l 1.12,1.12 A 0.30054118,0.30054118 0 1 0 9.54,10.03 L 8.42,8.9 C 8.6,8.63 8.72,8.3 8.72,7.96 A 1.67,1.67 0 0 0 7.04,6.3 Z m 0,0.6 A 1.06,1.06 0 0 1 8.1,7.98 1.06,1.06 0 0 1 7.04,9.04 1.06,1.06 0 0 1 5.97,7.98 c 0,-0.6 0.48,-1.06 1.07,-1.06 z"
     id="path2"
     inkscape:connector-curvature="0"
     style="fill:#ff7f2a" />
</svg>
